Pods/ProtonCore-UIFoundations/libraries/UIFoundations/Sources/Assets.xcassets/Images/IconSet/ic-link-pen.imageset/ic-link-pen.svg

<svg width="24" height="24" viewBox="0 0 24 24" fill="none" xmlns="http://www.w3.org/2000/svg">
<path fill-rule="evenodd" clip-rule="evenodd" d="M16.7709 3.00284L18.3533 4.59535L11.1486 11.8344L9.49571 12.0273L9.68013 10.3373L16.7709 3.00284ZM15.6993 1.95346C16.2807 1.35203 17.2386 1.34543 17.8282 1.93879L19.4105 3.5313C19.9948 4.1193 19.9944 5.07275 19.4097 5.66027L12.205 12.8993C11.9667 13.1387 11.6552 13.2902 11.3208 13.3292L8.73631 13.6308C8.25934 13.6864 7.85465 13.2816 7.90707 12.8012L8.19388 10.173C8.23025 9.83976 8.37617 9.52825 8.60849 9.28795L15.6993 1.95346ZM22.5 19.471C22.5 16.9724 20.4745 14.9469 17.9759 14.9469H14.25C13.8358 14.9469 13.5 15.2827 13.5 15.6969C13.5 16.1111 13.8358 16.4469 14.25 16.4469H17.9759C19.6461 16.4469 21 17.8008 21 19.471C21 21.1412 19.6461 22.4951 17.9759 22.4951H14.25C13.8358 22.4951 13.5 22.8309 13.5 23.2451C13.5 23.6593 13.8358 23.9951 14.25 23.9951H17.9759C20.4745 23.9951 22.5 21.9696 22.5 19.471ZM15.75 19.471C15.75 19.8852 15.4142 20.221 15 20.221H9C8.58579 20.221 8.25 19.8852 8.25 19.471C8.25 19.0568 8.58579 18.721 9 18.721H15C15.4142 18.721 15.75 19.0568 15.75 19.471ZM1.5 19.471C1.5 21.9696 3.5255 23.9951 6.02408 23.9951L9.75 23.9951C10.1642 23.9951 10.5 23.6593 10.5 23.2451C10.5 22.8309 10.1642 22.4951 9.75 22.4951L6.02408 22.4951C4.35393 22.4951 3 21.1412 3 19.471C3 17.8008 4.35393 16.4469 6.02408 16.4469L9.75 16.4469C10.1642 16.4469 10.5 16.1111 10.5 15.6969C10.5 15.2827 10.1642 14.9469 9.75 14.9469L6.02408 14.9469C3.5255 14.9469 1.5 16.9724 1.5 19.471Z" fill="#0C0C14"/>
</svg>

<svg xmlns="http://www.w3.org/2000/svg" width="24" height="24" viewBox="0 0 24 24">
  <g class="ic-link-pen">
    <path fill-rule="evenodd" d="m16.77 3.003 1.583 1.592-7.204 7.24-1.653.192.184-1.69 7.09-7.334Zm-1.07-1.05a1.488 1.488 0 0 1 2.128-.014L19.41 3.53a1.512 1.512 0 0 1 0 2.13l-7.205 7.238c-.238.24-.55.391-.884.43l-2.585.302a.75.75 0 0 1-.829-.83l.287-2.628c.036-.333.182-.645.414-.885L15.7 1.953Zm6.8 17.518a4.524 4.524 0 0 0-4.524-4.524H14.25a.75.75 0 0 0 0 1.5h3.726a3.024 3.024 0 1 1 0 6.048H14.25a.75.75 0 0 0 0 1.5h3.726a4.524 4.524 0 0 0 4.524-4.524Zm-6.75 0a.75.75 0 0 1-.75.75H9a.75.75 0 0 1 0-1.5h6a.75.75 0 0 1 .75.75Zm-14.25 0a4.524 4.524 0 0 0 4.524 4.524H9.75a.75.75 0 0 0 0-1.5H6.024a3.024 3.024 0 1 1 0-6.048H9.75a.75.75 0 0 0 0-1.5H6.024A4.524 4.524 0 0 0 1.5 19.47Z" class="Icon"/>
  </g>
</svg>
